X: 1
T: Popsicles
P: piffero primo a0803
O: Dave Gregory
%R: hornpipe, reel
F: http://ancients.sudburymuster.org/mus/sng/pdf/popciclesC0.pdf
Z: 2020 John Chambers <jc:trillian.mit.edu>
M: 2/4
L: 1/16
K: D
ef |\
(3fgf (3BcB (3fgf (3BcB | ABcA Bcde |\
(3fgf (3BcB (3fgf (3BcB | ABcA d2 :: cB |\
A3c e2a2 |
G2{AG}Bd gfed |\
A2{BA}df gfed | G2{AG}Bd gfed |\
A3c e2a2 | G2{AG}Bd gfed |\
A2Be (3gfg fe | dBAB d2 :|
